X: 1
T: The Primrose Lasses
R: reel
M: 4/4
L: 1/8
K: Gmaj
B3A G3E|DEGA BAA2|dBAB GAGE|DFGA BGG2|
B3A G3E|DEGA BAA2|dcBA GFED|DFGA BGG2:|
Bdgd edgd|Bdgd eAA2|Bdgd edgd|BdAc BGG2|
Bdgd edgd|Bdgd eAA2|Bdef gage|dBAc BGG2:|


Tune 789	Setting 28573

